static/logos/netflix-wordmark-color.svg

<svg width="100" height="28" viewBox="0 0 100 28" fill="none" xmlns="http://www.w3.org/2000/svg">
<g clip-path="url(#clip0_1_1878)">
<path d="M13.7503 25.2836C12.246 25.5478 10.7152 25.627 9.13174 25.8379L4.30186 11.6918V26.445C2.79756 26.6033 1.4252 26.8145 0 27.0256V0H4.01172L9.50117 15.3341V0H13.7503V25.2836ZM22.0639 9.89707C23.7003 9.89707 26.2075 9.81787 27.7118 9.81787V14.0405C25.8379 14.0405 23.6475 14.0405 22.0639 14.1197V20.4012C24.5448 20.2429 27.0257 20.0315 29.5328 19.9523V24.0165L17.841 24.9404V0H29.5328V4.22275H22.0639V9.89707ZM45.2361 4.22285H40.8551V23.6475C39.4299 23.6475 38.0047 23.6475 36.6325 23.7001V4.22285H32.2515V0H45.2363L45.2361 4.22285ZM52.098 9.60684H57.878V13.8295H52.098V23.41H47.9542V0H59.7519V4.22275H52.098V9.60684ZM66.6138 19.7149C69.0155 19.7676 71.4435 19.9526 73.7925 20.0844V24.2544C70.0185 24.0167 66.2443 23.7795 62.3911 23.7001V0H66.6138V19.7149ZM77.3554 24.5447C78.7014 24.624 80.1266 24.7032 81.4989 24.8613V0H77.3554V24.5447ZM100 0L94.6423 12.853L100 27.0256C98.416 26.8145 96.8328 26.5241 95.2492 26.2602L92.2143 18.4482L89.1267 25.627C87.5956 25.3628 86.1177 25.2836 84.5872 25.0725L90.0239 12.6945L85.1148 0H89.6541L92.4253 7.09951L95.3813 0H100Z" fill="#D81F26"/>
</g>
<defs>
<clipPath id="clip0_1_1878">
<rect width="100" height="27.0508" fill="white"/>
</clipPath>
</defs>
</svg>

<svg xmlns="http://www.w3.org/2000/svg" width="228.571" height="64" fill="none" viewBox="0 0 100 28"><g clip-path="url(#a)"><path fill="#D81F26" d="M13.75 25.284c-1.504.264-3.035.343-4.618.554l-4.83-14.146v14.753c-1.504.158-2.877.37-4.302.58V0h4.012l5.49 15.334V0h4.248v25.284Zm8.314-15.387c1.636 0 4.143-.08 5.648-.08v4.223c-1.874 0-4.064 0-5.648.08V20.4c2.48-.158 4.962-.37 7.469-.449v4.064l-11.692.924V0h11.692v4.223h-7.47v5.674Zm23.172-5.674h-4.38v19.425c-1.426 0-2.851 0-4.224.052V4.223h-4.38V0h12.984v4.223Zm6.862 5.384h5.78v4.223h-5.78v9.58h-4.144V0h11.798v4.223h-7.654v5.384Zm14.516 10.108c2.401.053 4.83.238 7.178.37v4.17c-3.773-.238-7.548-.476-11.4-.555V0h4.222v19.715Zm10.741 4.83c1.346.079 2.772.158 4.144.316V0h-4.144v24.545ZM100 0l-5.358 12.853L100 27.026c-1.584-.212-3.167-.502-4.75-.766l-3.036-7.812-3.087 7.179c-1.531-.264-3.01-.343-4.54-.554l5.437-12.379L85.114 0h4.54l2.771 7.1L95.381 0H100Z"/></g><defs><clipPath id="a"><path fill="#fff" d="M0 0h100v27.051H0z"/></clipPath></defs></svg>
